!! Orlando di Lasso, "Qui sequitur me" 2-part polyphony; alla breve;
!! No. 6 from "Examples of Gregorian Chant & Works ...", compiled
!! by Gustave Soderlund, Appleton-Century-Crofts (New York), 1937; pp. 13-14
**kern	**kern
*M4/2	*M4/2
=1	=1
1r	1.e
1A	.
.	[2f
=2	=2
2.B-	4f]
.	4f
.	1g
4B-	.
1c	.
.	2e
=3	=3
1A	2r
.	1cc
1f	.
.	[2a
=4	=4
2.d	4a]
.	4a
.	1f
4d	.
1B-	.
.	2d
=5	=5
1G	2r
.	1g
1c	.
.	[2e
=6	=6
2.A	4e]
.	4e
.	2f
4A	.
2B-	2.g
[2c	.
.	4f
=7	=7
4c]	4e
4B-	4d
4A	2c
4G	.
1F	2r
.	2cc
=8	=8
2r	1.a
2f	.
[1d	.
.	2b-
=9	=9
2d]	1a
2c#	.
1d	2r
.	2a
=10	=10
2r	1.f
2d	.
[1A	.
.	2e
=11	=11
2A]	1f
2B-	.
2A	2.cc
[2F	.
.	4b-
=12	=12
4F]	4a
4G	4g
4A	2f
4B-	.
4c	4e
4A	4f
4B-	4g
4c	4e
=13	=13
1d	4f
.	4g
.	1a
2.B-	.
.	2g
4B-	.
=14	=14
2A	[0a
1r	.
[2f	.
=15	=15
2f]	1a]
2d	.
2.f	2r
.	[2a
4e	.
=16	=16
4d	2a]
4c	.
4d	2f
4e	.
2f	2.a
2d	.
.	4g
=17	=17
2r	4f
.	4e
2a	4f
.	4g
2f	2a
[2a	2f
=18	=18
4a]	1cc
4g	.
4f	.
4e	.
2.f	2a
.	[2cc
4g	.
=19	=19
4a	4cc]
4g	4b-
4f	4a
4e	4g
4d	2a
4c	.
2d	[2f
=20	=20
2B-	2f]
4G	2.b-
4A	.
4B-	.
4c	8a
.	8g
4d	4f
4e	4g
=21	=21
2.f	4a
.	4b-
.	2.cc
4e	.
2f	.
.	4a
[2d	2b-
=22	=22
4d]	2.a
4c	.
4d	.
4e	4g
4f	4a
4d	4b-
4e	4cc
4f	4a
=23	=23
4g	2b-
4d	.
2f	4a
.	4b-
2f	4cc
.	4a
4e	[2dd
4d	.
=24	=24
1e	4dd]
.	8cc#
.	8bn
.	2cc#
[1d	1dd
=25	=25
1d]	2r
.	2a
2r	2b-
2e	[2cc
=26	=26
2f	4cc]
.	8b-
.	8a
2.g	4b-
.	4g
.	2.a
8f	.
8e	.
4f	.
4d	4a
=27	=27
2.e	2g
.	2.cc
4e	.
2d	.
.	8b-
.	8a
[2g	2b-
=28	=28
4g]	2.a
8f	.
8e	.
2f	.
.	4b-
2.e	2cc
.	4g
4f	4a
=29	=29
2g	4b-
.	4cc
4G	2.dd
4A	.
4B-	.
4c	4cc
[2d	4b-
.	4a
=30	=30
4d]	4b-
4c	4a
4B-	4g
4A	4f
4G	4b-
4F	4cc
4B-	4dd
4c	4cc
=31	=31
4d	4b-
4c	4a
4c	1a
8B-	.
8A	.
2B-	.
2B-	2g
=32	=32
0A;	0a;
==	==
*-	*-
